P2
24 24
255
54 76 207 191 205 61 9 117 69 195 174 203 39 12 103 62 205 172 131 53 5 122 117 255
134 109 40 56 113 129 250 98 97 35 26 162 128 160 66 90 67 28 184 118 121 49 17 67
70 217 69 96 31 18 0 113 201 80 99 32 11 33 135 220 62 100 47 55 23 101 186 90
88 21 37 73 52 172 114 88 22 41 95 97 193 118 105 24 41 73 114 204 104 179 51 69
54 76 207 191 205 61 9 117 69 195 174 203 39 12 103 62 205 172 131 53 5 122 117 255
134 109 40 56 113 129 250 98 97 35 26 162 128 160 66 90 67 28 184 118 121 49 17 67
70 217 69 96 31 18 0 113 201 80 99 32 11 33 135 220 62 100 47 55 23 101 186 90
88 21 37 73 52 172 114 88 22 41 95 97 193 118 105 24 41 73 114 204 104 179 51 69
54 76 207 191 205 61 9 117 69 195 174 203 39 12 103 62 205 172 131 53 5 122 117 255
134 109 40 56 113 129 250 98 97 35 26 162 128 160 66 90 67 28 184 118 121 49 17 67
70 217 69 96 31 18 0 113 201 80 99 32 11 33 135 220 62 100 47 55 23 101 186 90
88 21 37 73 52 172 114 88 22 41 95 97 193 118 105 24 41 73 114 204 104 179 51 69
54 76 207 191 205 61 9 117 69 195 174 203 39 12 103 62 205 172 131 53 5 122 117 255
134 109 40 56 113 129 250 98 97 35 26 162 128 160 66 90 67 28 184 118 121 49 17 67
70 217 69 96 31 18 0 113 201 80 99 32 11 33 135 220 62 100 47 55 23 101 186 90
88 21 37 73 52 172 114 88 22 41 95 97 193 118 105 24 41 73 114 204 104 179 51 69
54 76 207 191 205 61 9 117 69 195 174 203 39 12 103 62 205 172 131 53 5 122 117 255
134 109 40 56 113 129 250 98 97 35 26 162 128 160 66 90 67 28 184 118 121 49 17 67
70 217 69 96 31 18 0 113 201 80 99 32 11 33 135 220 62 100 47 55 23 101 186 90
88 21 37 73 52 172 114 88 22 41 95 97 193 118 105 24 41 73 114 204 104 179 51 69
54 76 207 191 205 61 9 117 69 195 174 203 39 12 103 62 205 172 131 53 5 122 117 255
134 109 40 56 113 129 250 98 97 35 26 162 128 160 66 90 67 28 184 118 121 49 17 67
70 217 69 96 31 18 0 113 201 80 99 32 11 33 135 220 62 100 47 55 23 101 186 90
88 21 37 73 52 172 114 88 22 41 95 97 193 118 105 24 41 73 114 204 104 179 51 69
