P2
24 24
255
112 52 164 202 65 136 85 117 57 202 234 79 104 78 101 90 202 195 105 129 80 101 72 240
174 97 148 97 71 122 255 128 97 179 49 65 98 194 165 113 166 35 115 135 150 123 132 162
34 129 175 104 154 161 130 48 70 187 86 124 139 150 70 94 191 80 160 118 113 45 70 241
96 161 120 135 0 80 238 58 142 125 101 74 152 238 51 107 133 115 79 119 225 68 123 140
112 52 164 202 65 136 85 117 57 202 234 79 104 78 101 90 202 195 105 129 80 101 72 240
174 97 148 97 71 122 255 128 97 179 49 65 98 194 165 113 166 35 115 135 150 123 132 162
34 129 175 104 154 161 130 48 70 187 86 124 139 150 70 94 191 80 160 118 113 45 70 241
96 161 120 135 0 80 238 58 142 125 101 74 152 238 51 107 133 115 79 119 225 68 123 140
112 52 164 202 65 136 85 117 57 202 234 79 104 78 101 90 202 195 105 129 80 101 72 240
174 97 148 97 71 122 255 128 97 179 49 65 98 194 165 113 166 35 115 135 150 123 132 162
34 129 175 104 154 161 130 48 70 187 86 124 139 150 70 94 191 80 160 118 113 45 70 241
96 161 120 135 0 80 238 58 142 125 101 74 152 238 51 107 133 115 79 119 225 68 123 140
112 52 164 202 65 136 85 117 57 202 234 79 104 78 101 90 202 195 105 129 80 101 72 240
174 97 148 97 71 122 255 128 97 179 49 65 98 194 165 113 166 35 115 135 150 123 132 162
34 129 175 104 154 161 130 48 70 187 86 124 139 150 70 94 191 80 160 118 113 45 70 241
96 161 120 135 0 80 238 58 142 125 101 74 152 238 51 107 133 115 79 119 225 68 123 140
112 52 164 202 65 136 85 117 57 202 234 79 104 78 101 90 202 195 105 129 80 101 72 240
174 97 148 97 71 122 255 128 97 179 49 65 98 194 165 113 166 35 115 135 150 123 132 162
34 129 175 104 154 161 130 48 70 187 86 124 139 150 70 94 191 80 160 118 113 45 70 241
96 161 120 135 0 80 238 58 142 125 101 74 152 238 51 107 133 115 79 119 225 68 123 140
112 52 164 202 65 136 85 117 57 202 234 79 104 78 101 90 202 195 105 129 80 101 72 240
174 97 148 97 71 122 255 128 97 179 49 65 98 194 165 113 166 35 115 135 150 123 132 162
34 129 175 104 154 161 130 48 70 187 86 124 139 150 70 94 191 80 160 118 113 45 70 241
96 161 120 135 0 80 238 58 142 125 101 74 152 238 51 107 133 115 79 119 225 68 123 140
