P2
16 16
255
14 2 2 25 83 169 243 242 145 30 7 101 217 254 192 88
88 59 25 2 12 80 189 255 190 51 4 104 227 248 165 59
192 165 122 65 12 9 102 232 227 71 3 120 243 230 122 25
254 248 230 187 109 20 19 169 249 84 8 156 255 187 65 2
217 227 243 255 236 144 13 76 255 82 28 213 236 109 12 12
101 104 120 156 213 255 154 2 243 54 99 255 144 20 9 80
7 4 3 8 28 99 239 93 214 2 239 154 13 19 102 189
30 51 71 84 82 54 2 192 174 192 93 2 76 169 232 255
145 190 227 249 255 243 214 174 128 174 214 243 255 249 227 190
242 255 232 169 76 2 93 192 174 192 2 54 82 84 71 51
243 189 102 19 13 154 239 2 214 93 239 99 28 8 3 4
169 80 9 20 144 255 99 54 243 2 154 255 213 156 120 104
83 12 12 109 236 213 28 82 255 76 13 144 236 255 243 227
25 2 65 187 255 156 8 84 249 169 19 20 109 187 230 248
2 25 122 230 243 120 3 71 227 232 102 9 12 65 122 165
2 59 165 248 227 104 4 51 190 255 189 80 12 2 25 59
